src/assets/outline/Iost.svg

<svg width="24" height="24" viewBox="0 0 24 24"  xmlns="http://www.w3.org/2000/svg">
<path d="M12 22.4306C11.52 22.4306 11.04 22.3006 10.61 22.0506L4.10999 18.2306C3.26999 17.7406 2.75 16.8306 2.75 15.8606V8.15061C2.75 7.18061 3.26999 6.27062 4.10999 5.78062L10.61 1.96062C11.47 1.45063 12.54 1.45063 13.4 1.96062L19.9 5.78062C20.74 6.27062 21.26 7.18061 21.26 8.15061V15.8606C21.26 16.8306 20.74 17.7406 19.9 18.2306L13.4 22.0506C12.96 22.3006 12.48 22.4306 12 22.4306ZM11.37 3.24062L4.87 7.06062C4.49 7.28062 4.25 7.70062 4.25 8.14062V15.8506C4.25 16.2906 4.49 16.7006 4.87 16.9306L11.37 20.7506C11.76 20.9806 12.25 20.9806 12.64 20.7506L19.14 16.9306C19.52 16.7106 19.76 16.2906 19.76 15.8506V8.14062C19.76 7.70062 19.52 7.29062 19.14 7.06062L12.64 3.24062C12.24 3.01062 11.76 3.01062 11.37 3.24062Z" />
<path d="M12.0002 18.7491C11.8702 18.7491 11.7302 18.7091 11.6102 18.6391L6.61023 15.6391C6.25023 15.4291 6.14022 14.9691 6.35022 14.6091C6.56022 14.2491 7.02025 14.1391 7.38025 14.3491L11.9902 17.1191L15.5303 14.9891L6.60022 9.62914C6.37022 9.48914 6.24023 9.24914 6.24023 8.98914C6.24023 8.72914 6.38022 8.47914 6.60022 8.34914L11.6002 5.34914C11.8402 5.20914 12.1402 5.20914 12.3702 5.34914L17.3702 8.34914C17.7302 8.55914 17.8402 9.01914 17.6302 9.37914C17.4202 9.72914 16.9602 9.84913 16.6002 9.63913L11.9902 6.86913L8.45026 8.99913L17.3802 14.3591C17.6102 14.4991 17.7402 14.7391 17.7402 14.9991C17.7402 15.2591 17.6002 15.5091 17.3802 15.6391L12.3802 18.6391C12.2702 18.7091 12.1302 18.7491 12.0002 18.7491Z" />
<path d="M9.49997 12.7495C9.30997 12.7495 9.11994 12.6795 8.96994 12.5295C8.67994 12.2395 8.67994 11.7595 8.96994 11.4695L10.9699 9.46945C11.2599 9.17945 11.74 9.17945 12.03 9.46945C12.32 9.75945 12.32 10.2395 12.03 10.5295L10.03 12.5295C9.88 12.6795 9.68997 12.7495 9.49997 12.7495Z" />
<path d="M12.5 14.7495C12.31 14.7495 12.1199 14.6795 11.9699 14.5295C11.6799 14.2395 11.6799 13.7595 11.9699 13.4695L13.9699 11.4695C14.2599 11.1795 14.74 11.1795 15.03 11.4695C15.32 11.7595 15.32 12.2395 15.03 12.5295L13.03 14.5295C12.88 14.6795 12.69 14.7495 12.5 14.7495Z" />
</svg>

<?xml version="1.0" encoding="UTF-8"?>
<svg width="24" height="24" viewBox="0 0 24 24" xmlns="http://www.w3.org/2000/svg">
 <path d="m12 22.431c-0.48 0-0.96-0.13-1.39-0.38l-6.5-3.82c-0.84-0.49-1.36-1.4-1.36-2.37v-7.71c0-0.97 0.51999-1.88 1.36-2.37l6.5-3.82c0.86-0.50999 1.93-0.50999 2.79 0l6.5 3.82c0.84 0.49 1.36 1.4 1.36 2.37v7.71c0 0.97-0.52 1.88-1.36 2.37l-6.5 3.82c-0.44 0.25-0.92 0.38-1.4 0.38zm-0.63-19.19-6.5 3.82c-0.38 0.22-0.62 0.64-0.62 1.08v7.71c0 0.44 0.24 0.85 0.62 1.08l6.5 3.82c0.39 0.23 0.88 0.23 1.27 0l6.5-3.82c0.38-0.22 0.62-0.64 0.62-1.08v-7.71c0-0.44-0.24-0.85-0.62-1.08l-6.5-3.82c-0.4-0.23-0.88-0.23-1.27 0z"/>
 <path d="m12 18.749c-0.13 0-0.27-0.04-0.39-0.11l-5-3c-0.36-0.21-0.47001-0.67-0.26001-1.03s0.67003-0.47 1.03-0.26l4.61 2.77 3.5401-2.13-8.9301-5.36c-0.23-0.14-0.35999-0.38-0.35999-0.64s0.13999-0.51 0.35999-0.64l5-3c0.24-0.14 0.54-0.14 0.77 0l5 3c0.36 0.21 0.47 0.67 0.26 1.03-0.21 0.35-0.67 0.46999-1.03 0.25999l-4.61-2.77-3.5399 2.13 8.9299 5.36c0.23 0.14 0.36 0.38 0.36 0.64s-0.14 0.51-0.36 0.64l-5 3c-0.11 0.07-0.25 0.11-0.38 0.11z"/>
 <path d="m9.5 12.75c-0.19 0-0.38003-0.07-0.53003-0.22-0.29-0.29-0.29-0.77 0-1.06l2-2c0.29-0.29 0.7701-0.29 1.0601 0s0.29 0.77005 0 1.06l-2 2c-0.15 0.15-0.34003 0.22-0.53003 0.22z"/>
 <path d="m12.5 14.75c-0.19 0-0.3801-0.07-0.5301-0.22-0.29-0.29-0.29-0.77 0-1.06l2-2c0.29-0.29 0.7701-0.29 1.0601 0s0.29 0.77 0 1.06l-2 2c-0.15 0.15-0.34 0.22-0.53 0.22z"/>
</svg>
